assets/battery-charging.svg

<svg xmlns="http://www.w3.org/2000/svg" fill="none" viewBox="0 0 27 17">
  <path fill="#2A2238" d="M16.1745.103224c.1649.085333.2923.217804.3616.375802.0692.157999.0762.332197.0198.494175L14.6423 6.49906h3.3581c.1648-.00006.326.04278.4637.12322s.2459.19498.3112.32945c.0654.13448.085.28302.0564.42728-.0286.14426-.104.27794-.2171.38451L9.61353 16.2638c-.13063.1235-.30445.204-.49314.2284-.18868.0244-.38111-.0087-.54591-.094-.1648-.0852-.29225-.2176-.36159-.3755-.06934-.1578-.07647-.3319-.02023-.4939l1.91534-5.5273H6.74985c-.1648 0-.326-.04281-.46372-.12326-.13771-.08044-.24591-.19497-.31124-.32945-.06533-.13448-.08492-.28302-.05636-.42728.02856-.14426.10402-.27793.21707-.38451L15.135.23672c.1306-.123654.3045-.2043225.4932-.22883998.1888-.02451752.3814.00856298.5463.09384298v.001501Z"/>
  <path fill="#2A2238" d="M3.37499 2.25119h7.31021L9.09898 3.75115H3.37499c-.44755 0-.87677.15803-1.19324.43933-.31647.2813-.49425.66282-.49425 1.06063V11.251c0 .3978.17778.7793.49425 1.0606.31647.2813.74569.4393 1.19324.4393h4.01624l-.51975 1.5H3.37499c-.8951 0-1.75354-.3161-2.386478-.8787C.355578 12.8096 0 12.0466 0 11.251V5.25111c0-.79563.355578-1.55867.988512-2.12126.632938-.5626 1.491378-.87866 2.386478-.87866Z"/>
  <path fill="#2A2238" d="M3.375 5.85111c0-.33137.26863-.6.6-.6h3.53436L4.90725 7.70955c-.26854.25371-.46713.55937-.58013.89292-.11301.33354-.13734.68585-.07108 1.02918.06625.34332.22129.66825.45289.94925.2316.281.53345.5104.88175.6701H3.975c-.33137 0-.6-.2687-.6-.6V5.85111Zm14.504-3.59992-.5197 1.49996H20.25c.4475 0 .8767.15803 1.1932.43933s.4943.66282.4943 1.06063V11.251c0 .3978-.1778.7793-.4943 1.0606s-.7457.4393-1.1932.4393h-4.5968l-1.5896 1.5H20.25c.8951 0 1.7535-.3161 2.3864-.8787.633-.5626.9885-1.3256.9885-2.1212V5.25111c0-.79563-.3555-1.55867-.9885-2.12126-.6329-.5626-1.4913-.87866-2.3864-.87866h-2.371Z"/>
  <path fill="#2A2238" d="M20.25 10.6509c0 .3314-.2686.6-.6.6h-2.4088l2.6021-2.45842c.1637-.1545.3004-.327.4067-.50999v2.36841Zm0-4.43086v-.36897c0-.33137-.2686-.6-.6-.6h-.4901c.4679.21438.8489.55309 1.0901.96897ZM27 8.25099c0 .59672-.2667 1.169-.7414 1.59095-.4747.42196-1.1185.65896-1.7898.65896V6.00105c.6713 0 1.3151.23705 1.7898.65899.4747.42195.7414.99423.7414 1.59095Z"/>
</svg>

<svg width="27" height="17" viewBox="0 0 27 17" fill="none" xmlns="http://www.w3.org/2000/svg">
<path d="M16.1745 0.103224C16.3394 0.188557 16.4668 0.321028 16.5361 0.479026C16.6053 0.637025 16.6123 0.811223 16.5559 0.973201L14.6423 6.49906H18.0004C18.1652 6.499 18.3264 6.54184 18.4641 6.62228C18.6018 6.70272 18.71 6.81726 18.7753 6.95173C18.8407 7.08621 18.8603 7.23475 18.8317 7.37901C18.8031 7.52327 18.7277 7.65695 18.6146 7.76352L9.61353 16.2638C9.4829 16.3873 9.30908 16.4678 9.12039 16.4922C8.93171 16.5166 8.73928 16.4835 8.57448 16.3982C8.40968 16.313 8.28223 16.1806 8.21289 16.0227C8.14355 15.8649 8.13642 15.6908 8.19266 15.5288L10.108 10.0015H6.74985C6.58505 10.0015 6.42385 9.95869 6.28613 9.87824C6.14842 9.7978 6.04022 9.68327 5.97489 9.54879C5.90956 9.41431 5.88997 9.26577 5.91853 9.12151C5.94709 8.97725 6.02255 8.84358 6.1356 8.737L15.135 0.23672C15.2656 0.113066 15.4395 0.0323975 15.6282 0.00788002C15.817 -0.0166375 16.0096 0.016443 16.1745 0.101723V0.103224Z" fill="#2A2238"/>
<path d="M3.37499 2.25119H10.6852L9.09898 3.75115H3.37499C2.92744 3.75115 2.49822 3.90918 2.18175 4.19048C1.86528 4.47178 1.6875 4.8533 1.6875 5.25111V11.251C1.6875 11.6488 1.86528 12.0303 2.18175 12.3116C2.49822 12.5929 2.92744 12.7509 3.37499 12.7509H7.39123L6.87148 14.2509H3.37499C2.47989 14.2509 1.62145 13.9348 0.988512 13.3722C0.355578 12.8096 0 12.0466 0 11.251V5.25111C0 4.45548 0.355578 3.69244 0.988512 3.12985C1.62145 2.56725 2.47989 2.25119 3.37499 2.25119V2.25119Z" fill="#2A2238"/>
<path d="M3.375 5.85111C3.375 5.51974 3.64363 5.25111 3.975 5.25111H7.50936L4.90725 7.70955C4.63871 7.96326 4.44012 8.26892 4.32712 8.60247C4.21411 8.93601 4.18978 9.28832 4.25604 9.63165C4.32229 9.97497 4.47733 10.2999 4.70893 10.5809C4.94053 10.8619 5.24238 11.0913 5.59068 11.251H3.975C3.64363 11.251 3.375 10.9823 3.375 10.651V5.85111ZM17.879 2.25119L17.3593 3.75115H20.25C20.6975 3.75115 21.1267 3.90918 21.4432 4.19048C21.7597 4.47178 21.9375 4.8533 21.9375 5.25111V11.251C21.9375 11.6488 21.7597 12.0303 21.4432 12.3116C21.1267 12.5929 20.6975 12.7509 20.25 12.7509H15.6532L14.0636 14.2509H20.25C21.1451 14.2509 22.0035 13.9348 22.6364 13.3722C23.2694 12.8096 23.6249 12.0466 23.6249 11.251V5.25111C23.6249 4.45548 23.2694 3.69244 22.6364 3.12985C22.0035 2.56725 21.1451 2.25119 20.25 2.25119H17.879Z" fill="#2A2238"/>
<path d="M20.25 10.6509C20.25 10.9823 19.9814 11.2509 19.65 11.2509H17.2412L19.8433 8.79248C20.007 8.63798 20.1437 8.46548 20.25 8.28249V10.6509ZM20.25 6.22004V5.85107C20.25 5.5197 19.9814 5.25107 19.65 5.25107H19.1599C19.6278 5.46545 20.0088 5.80416 20.25 6.22004ZM27 8.25099C27 8.84771 26.7333 9.41999 26.2586 9.84194C25.7839 10.2639 25.1401 10.5009 24.4688 10.5009V6.00105C25.1401 6.00105 25.7839 6.2381 26.2586 6.66004C26.7333 7.08199 27 7.65427 27 8.25099Z" fill="#2A2238"/>
</svg>
